src/lib/packages/icons/src/assets/line/comment-shield.svg

<svg width="24" height="24" viewBox="0 0 24 24" fill="none" xmlns="http://www.w3.org/2000/svg">
<path d="M3.85693 21.75C3.71193 21.75 3.57111 21.748 3.43311 21.743C2.93311 21.731 2.49497 21.411 2.32397 20.928C2.15197 20.442 2.29408 19.9131 2.68408 19.5811C3.61608 18.8291 3.98892 17.997 4.13892 17.426C2.90192 15.947 2.24902 14.08 2.24902 12.001C2.24902 6.84798 6.25902 3.25 11.999 3.25C17.739 3.25 21.749 6.84898 21.749 12.001C21.749 17.153 17.739 20.752 11.999 20.752C10.812 20.752 9.67398 20.591 8.60498 20.2729C7.24198 21.4599 5.36393 21.75 3.85693 21.75ZM3.47803 20.243C3.48003 20.243 3.48189 20.243 3.48389 20.243C3.48089 20.244 3.47903 20.244 3.47803 20.243ZM12 4.75C7.143 4.75 3.75 7.73198 3.75 12.001C3.75 13.837 4.35498 15.463 5.50098 16.703C5.65598 16.871 5.72692 17.101 5.69092 17.328C5.52292 18.399 4.99511 19.412 4.18311 20.243C5.34311 20.201 6.90304 19.934 7.86304 18.91C8.06404 18.694 8.37603 18.617 8.65503 18.714C9.69003 19.072 10.815 19.2531 12 19.2531C16.857 19.2531 20.25 16.271 20.25 12.002C20.25 7.73295 16.857 4.75 12 4.75ZM12 16.75C11.919 16.75 11.838 16.737 11.76 16.71C9.82201 16.054 7.75 14.3551 7.75 11.5551V9.33301C7.75 8.99901 7.97197 8.70506 8.29297 8.61206C10.076 8.10006 10.9069 7.71298 11.6689 7.32898C11.8839 7.22198 12.1361 7.22305 12.3491 7.33105C13.1031 7.71705 13.9251 8.1 15.6851 8.547C16.0181 8.631 16.25 8.93105 16.25 9.27405V11.554C16.25 14.354 14.179 16.053 12.24 16.709C12.162 16.737 12.081 16.75 12 16.75ZM9.25 9.89404V11.556C9.25 13.852 11.208 14.879 12 15.2C12.792 14.879 14.75 13.852 14.75 11.556V9.85303C13.554 9.52203 12.7599 9.20601 12.0049 8.83801C11.2379 9.20801 10.459 9.52604 9.25 9.89404Z" fill="currentColor"/>
</svg>

<svg xmlns="http://www.w3.org/2000/svg" width="24" height="24" fill="none"><path fill="currentColor" d="M3.857 21.75c-.145 0-.286-.002-.424-.007a1.207 1.207 0 0 1-1.109-.815 1.221 1.221 0 0 1 .36-1.347c.932-.752 1.305-1.584 1.455-2.155-1.237-1.479-1.89-3.346-1.89-5.425 0-5.153 4.01-8.751 9.75-8.751s9.75 3.599 9.75 8.751c0 5.152-4.01 8.751-9.75 8.751-1.187 0-2.325-.161-3.394-.48-1.363 1.188-3.241 1.478-4.748 1.478Zm-.379-1.507h.006-.006ZM12 4.75c-4.857 0-8.25 2.982-8.25 7.251 0 1.836.605 3.462 1.751 4.702a.749.749 0 0 1 .19.625c-.168 1.071-.696 2.084-1.508 2.915 1.16-.042 2.72-.309 3.68-1.333a.748.748 0 0 1 .792-.196c1.035.358 2.16.54 3.345.54 4.857 0 8.25-2.983 8.25-7.252 0-4.27-3.393-7.252-8.25-7.252Zm0 12a.733.733 0 0 1-.24-.04c-1.938-.656-4.01-2.355-4.01-5.155V9.333a.75.75 0 0 1 .543-.72c1.783-.513 2.614-.9 3.376-1.284a.758.758 0 0 1 .68.002c.754.386 1.576.769 3.336 1.216a.749.749 0 0 1 .565.727v2.28c0 2.8-2.071 4.499-4.01 5.155a.708.708 0 0 1-.24.041ZM9.25 9.894v1.662c0 2.296 1.958 3.323 2.75 3.644.792-.321 2.75-1.348 2.75-3.644V9.853c-1.196-.331-1.99-.647-2.745-1.015-.767.37-1.546.688-2.755 1.056Z"/></svg>
